images/user.svg

<svg width="25" height="32" viewBox="0 0 25 32" fill="none" xmlns="http://www.w3.org/2000/svg">
<path d="M21.8741 22.8741L16.7792 20.3269C16.2987 20.0864 16 19.6032 16 19.0656V17.2624C16.1221 17.1131 16.2507 16.9429 16.3835 16.7552C17.0443 15.8219 17.5739 14.7829 17.9589 13.6624C18.7115 13.3173 19.2 12.5733 19.2 11.7333V9.6C19.2 9.0864 19.008 8.5888 18.6667 8.2V5.3632C18.6965 5.06987 18.8139 3.32373 17.5509 1.8832C16.4555 0.6336 14.6779 0 12.2667 0C9.85547 0 8.07787 0.6336 6.9824 1.88267C5.71947 3.3232 5.8368 5.06987 5.86667 5.3632V8.2C5.52533 8.5888 5.33333 9.0864 5.33333 9.6V11.7333C5.33333 12.3824 5.62827 12.9877 6.13173 13.3915C6.62027 15.3259 7.64267 16.7835 8 17.2512V19.016C8 19.5323 7.7184 20.0059 7.2656 20.2533L2.50773 22.8485C0.960533 23.6928 0 25.3109 0 27.0731V28.8C0 31.3312 8.024 32 12.2667 32C16.5093 32 24.5333 31.3312 24.5333 28.8V27.1771C24.5333 25.3435 23.5141 23.6944 21.8741 22.8741Z" fill="white"/>
</svg>

<svg xmlns="http://www.w3.org/2000/svg" width="25" height="32" fill="none"><path fill="#fff" d="m21.874 22.874-5.095-2.547c-.48-.24-.779-.724-.779-1.261v-1.804a9.2 9.2 0 0 0 .384-.507c.66-.933 1.19-1.972 1.575-3.093a2.116 2.116 0 0 0 1.241-1.929V9.6c0-.514-.192-1.011-.533-1.4V5.363c.03-.293.147-2.04-1.116-3.48C16.456.633 14.678 0 12.267 0c-2.412 0-4.19.634-5.285 1.883-1.263 1.44-1.145 3.187-1.115 3.48V8.2a2.127 2.127 0 0 0-.534 1.4v2.133c0 .65.295 1.255.799 1.659.488 1.934 1.51 3.392 1.868 3.86v1.764c0 .516-.282.99-.734 1.237L2.508 22.85A4.81 4.81 0 0 0 0 27.073V28.8C0 31.331 8.024 32 12.267 32c4.242 0 12.266-.669 12.266-3.2v-1.623a4.786 4.786 0 0 0-2.659-4.303Z"/></svg>
